X: 969
T: Hasret Dolu Âhım
C: Şerif İçli
O: Turkey
F: http://compmusic.upf.edu/node/140
N: ussak--sarki--turkaksagi--hasret_dolu--serif_icli
N: makam= ussak
N: form= sarki
N: usul= turkaksagi = 5/8
M: 5/8
L: 1/16
K: C _2/4B   
Q: 1/4=120
%%MIDI tuningsystem comma53
G4 d3c Bd | cB BAA6  | A2G2 ABcd ef | ed dcd6  | 
w:  ARANAĞME  |   |   |   | 
c2d2 edc2 d2 | ef eddc BcBA  | A2d2 (3BABc2 BA | 
w:   |   |   | 
A8-A2  | G4 d3c Bd | cB BAA6  | A2G2 ABcd ef | \
w:   |  ARANAĞME  |   |   | 
ed dcd6  | 
w:   | 
c2d2 edc2 d2 | ef eddc BcBA  | A2d2 (3BABc2 BA | 
w:   |   |   | 
A8-A2  | G3d cBBA A2 | A2 A2A2 ABG2  | GBAc Bdcf ed | 
w:   |  Has *  ret  |  do lu â  |  hım  | 
cB BAA6  | G2c6 (3BAB | d4dc cB/A/B2  | \
w:  sa *  na *  hüs  |  râ  |   | 
c2d2 dccd ed | 
w:  nı mı söy  | 
d4cB BAA2  | G3d cBBA A2 | A2 A2A2 ABG2  | \
w:  ler SAZ  |  Has *  ret  |  do lu â  | 
GBAc Bdcf ed | 
w:  hım  | 
cB BAA6  | G2c6 (3BAB | d4dc cB/A/B2  | \
w:  sa *  na *  hüs  |  râ  |   | 
c2d2 dccd ed | 
w:  nı mı söy  | 
d4G3/2A/ Bcd2  | c3d d4 de | dc cdcB BcBA  | 
w:  ler SAZ  |  Dî *  dem  |  de *  ki *  yaş  | 
A6B2 cd | dc BAB4AG  | G4 AGAB cd | ef eddc BcBA  | 
w:  lar_  |  i *  se *  hic  |  râ  |   | 
A2d2 (3BABc2 BA | A4G3/2A/ Bcd2  | c3d d4 de | \
w:  nı mı söy  |  ler SAZ  |  Dî *  dem  | 
dc cdcB BcBA  | 
w:  de *  ki *  yaş  | 
A6B2 cd | dc BAB4AG  | G4 AGAB cd | ef eddc BcBA  | 
w:  lar_  |  i *  se *  hic  |  râ  |   | 
A2d2 (3BABc2 BA | A4A3/2B/ cde2  | d3e e4 ce | \
w:  nı mı söy  |  ler SAZ  |  Bir *  an  | 
d2 c=Bc6  | 
w:  bi le *  ol  | 
=Bcdf edc_2/4B AB | c=B A^GA6  | G2c6 (3BAB | \
w:  sun  |  se *  ni *  müm  |  kün  | 
d4dc cB/A/B2  | 
w:   | 
c2d2 dccd ed | d4G3/2A/ Bcd2  | c3d d4 de | \
w:  mü u nut  |  mak SAZ  |  Dî *  dem  | 
dc cdcB BcBA  | 
w:  de *  ki *  yaş  | 
A6B2 cd | dc BAB4AG  | G4 AGAB cd | ef eddc BcBA  | 
w:  lar_  |  i *  se *  hic  |  râ  |   | 
A2d2 (3BABc2 BA | A4G3/2A/ Bcd2  | c3d d4 de | \
w:  nı mı söy  |  ler SAZ  |  Dî *  dem  | 
dc cdcB BcBA  | 
w:  de *  ki *  yaş  | 
A6B2 cd | dc BAB4AG  | G4 AGAB cd | ef eddc BcBA  | 
w:  lar_  |  i *  se *  hic  |  râ  |   | 
A2d2 (3BABc2 BA | A4|
w:  nı mı söy  |  ler  | 


